!!!COM: Scriabin, Alexander
!!!OTL: Prelude
!!!OPR: 24 Preludes
!!!OPS: 11
!!!ONM: 15
!!!ODT: 1895
!!!AGN: Prelude
!!!OMD: Lento [eighth] = 80-76
**kern	**kern	**dynam
*part1	*part1	*part1
*staff2	*staff1	*staff1/2
*Ipiano	*Ipiano	*Ipiano
*clefF4	*clefG2	*
*k[b-e-a-d-g-]	*k[b-e-a-d-g-]	*
*D-:	*D-:	*
*met(c)	*met(c)	*
*M4/4	*M4/4	*
*MM40	*MM40	*
=1	=1	=1
*clefG2	*	*
8r	1r	pp
8B- (8d-L	.	.
8F 8A-	.	.
8B- 8d-J	.	.
8c 8e-L	.	.
8A- 8a-	.	.
8d- 8f	.	.
8B- 8d-J	.	.
=2	=2	=2
1e- 1g-)	1r	.
=3	=3	=3
8r	1r	.
8c (8e-L	.	.
8G- 8B-	.	.
8c 8e-J	.	.
8d- 8fL	.	.
8B- 8b-	.	.
8e- 8g-	.	.
8c 8e-J	.	.
=4	=4	=4
1f 1a-)	1r	.
=5	=5	=5
8r	1r	.
(8d- 8fL	.	.
8A- 8c	.	.
8d- 8fJ	.	.
8c 8a-L	.	.
8d- 8f	.	.
8c 8a-	.	.
8d- 8fJ	.	.
!!LO:LB:g=original
=6	=6	=6
8B- 8g-L	1r	<
8c 8e-	.	.
8G- 8B-	.	.
8c 8e-J	.	.
8B- 8g-L	.	.
8c 8e-	.	.
8B- 8g-	.	.
8c 8e-J	.	.
=7	=7	=7
8A- 8fL	1r	.
8B- 8d-	.	.
8F 8A-	.	.
8B- 8d-J	.	.
8A- 8fL	.	>
8B- 8d-	.	.
8F 8A-	.	.
8B- 8d-J	.	.
=8	=8	=8
8G- 8e-L	1r	.
8B- 8d-J	.	.
2A- 2c	.	>
4B-) 4d-	.	]]
=9	=9	=9
!	!	!LO:DY:b
8r	(2dd-	mf
!	!	!LO:DY:b=2
8B- (8d-L	.	pp
8F 8A-	.	.
8B- 8d-J	.	.
8c 8e-L	2aa-	.
8A- 8a-	.	.
8d- 8f	.	.
8B- 8d-J	.	.
!!LO:LB:g=original
=10	=10	=10
*	*^	*
1e- 1g-)	4b-\	1b-	.
.	4gg-\	.	.
.	4.ff\	.	.
.	8ee-\	.	.
*	*v	*v	*
=11	=11	=11
8r	2ee-	.
8c (8e-L	.	.
8G- 8B-	.	.
8c 8e-J	.	.
8d- 8fL	2bb-	.
8B- 8b-	.	.
8e- 8g-	.	.
8c 8e-J	.	.
*clefG2	*	*
=12	=12	=12
*	*^	*
1f 1a-)	4cc\	1cc	.
.	4aa-\	.	.
.	4.gg-\	.	.
.	8ff\	.	.
*	*v	*v	*
=13	=13	=13
8r	8ff)	.
(8d- 8fL	(4ff	.
8A- 8c	.	.
8d- 8fJ	8ff	<
8c 8a-L	4.ff	.
8d- 8f	.	.
8c 8a-	.	.
8d- 8fJ	8aa-	.
!!LO:LB:g=original
=14	=14	=14
8B- 8g-L	8dd-	.
8c 8e-	4ee-	.
8G- 8B-	.	.
8c 8e-J	8ee-	.
8B- 8g-L	4.ee-	.
8c 8e-	.	.
8B- 8g-	.	.
8c 8e-J	8gg-	.
=15	=15	=15
8A- 8fL	8cc	.
8B- 8d-	4dd-	.
8F 8A-	.	.
8B- 8d-J	8dd-	.
8A- 8fL	8cc	.
8B- 8d-	4dd-	>
8F 8A-	.	.
8B- 8d-J	8dd-	.
=16	=16	=16
8G- 8e-L	8b-	.
8B- 8d-	4ee-	.
8G- 8e-	.	.
8B- 8d-J	8ee-	>
8A- 8cL	8ee-L	.
8B- 8d-	8dd-J	.
8c 8e-	[4a-	.
8d- 8fJ	.	]]
=17	=17	=17
4d-) 4f	8a-])	pp
.	(8f 8a-L	.
*clefF4	*	*
!	!	!LO:DY:b=2
[4F^	8c 8e-	mp
.	8f 8a-J	.
4.F]	8e- 8ccL	.
.	8f 8a-	.
.	8e- 8cc	.
8F	8f 8a-J	.
!!LO:LB:g=original
=18	=18	=18
8B-	8d- 8b-L	.
8r	8e- 8g-	.
[4E-^	8B- 8d-	.
.	8e- 8g-J	.
4.E-]	8d- 8b-L	.
.	8e- 8g-	.
.	8d- 8b-	.
8E-	8e- 8g-J	.
=19	=19	=19
4F^	8c 8a-L	.
.	8d- 8f	.
[4F	8A- 8c	.
.	8d- 8fJ	.
4F]	8c 8a-L	.
.	8d- 8f	.
8F~xL	8c 8a-	.
8BB-~xJ	8d- 8fJ	.
=20	=20	=20
8E-	8B- 8g-L	.
8r	8d- 8f	.
[4F	8A- 8c	.
.	8d- 8fJ	.
4F]	8c 8a-L	.
.	8d- 8f	.
8FL	8c 8a-	.
8BB-J	8d- 8fJ	.
=21	=21	=21
4E-	8B- 8g-L	.
.	8d- 8f	.
8FL	8c 8a-	.
8BB-J	8d- 8fJ	.
4E-	8B- 8g-L	.
.	8d- 8f	.
8F^L	8c 8a-	.
8BB-^J	8d- 8fJ	.
!!LO:LB:g=original
=22	=22	=22
4E-	8B- 8g-L	.
.	8d- 8fJ	.
2A-	2c 2e-	.
4B-	4d-)	.
*clefG2	*	*
=23	=23	=23
8r	(2dd-	pp
8B- (8d-L	.	.
8F 8A-	.	.
8B- 8d-J	.	.
8c 8e-L	2aa-	.
8A- 8a-	.	.
8d- 8f	.	.
8B- 8d-J	.	.
=24	=24	=24
*	*^	*
[1e- [1g-	4b-	[1b-	.
.	4gg-	.	.
.	4.ff	.	.
.	8ee-	.	.
*	*v	*v	*
=25	=25	=25
1e-] 1g-])	1b-] 1ee-	.
=26	=26	=26
1A- 1a-	1cc 1ee-	.
=27	=27	=27
[1d- [1a-	[1dd- [1ff	.
=28	=28	=28
1d-] 1a-]	1dd-] 1ff])	.
==	==	==
*-	*-	*-
!!!RDF**kern: > = above
!!!RDF**kern: < = below
!!!RDF**dynam: > = dim.
!!!PPP: Ausgewählte Klavierwerke, Band 2 (pp.11-45). Leipzig: Edition Peters, No.9077, 1967. Plate E.P. 12359.
!!!URL-pdf: https://vmirror.imslp.org/files/imglnks/usimg/6/63/IMSLP75863-PMLP09363-Scriabin_Ausgewaehlte_Klavierwerke_Band_2_Peters_Op_11_scan.pdf#page=32 Edition Peters, No.9077, 1967
!!!ENC: Craig Stuart Sapp
!!!END: 2004/04/03
!!!EED: Craig Stuart Sapp
!!!EEV: 2023/02/20
